icons/mobile/24/svg/thumbs-down-24.svg

<svg width="24" height="24" viewBox="0 0 24 24" fill="none" xmlns="http://www.w3.org/2000/svg">
<path fill-rule="evenodd" clip-rule="evenodd" d="M5.5 3.5C6.15293 3.5 6.70703 3.91766 6.91309 4.5H11.7676C13.5726 4.573 15.3965 4.71118 17.1885 4.90918C17.9952 4.99927 18.7299 5.40114 19.2568 6.04395C20.2988 7.31794 21.0596 8.76013 21.5176 10.3281C21.8625 11.51 22.025 12.7358 22 13.9717C21.966 15.5845 20.6782 16.9176 19.0654 17.0068C18.4005 17.0428 17.7062 17.0644 16.9873 17.0645C16.3275 17.0635 15.6514 17.0467 14.9785 17.0117V19.3643C14.9784 20.8171 13.7947 22 12.3418 22H12.0273C11.1453 22 10.3438 21.4459 10.0068 20.5469C9.67688 19.3521 9.23529 18.1822 8.69141 17.0693C8.31447 16.2955 7.88315 15.5403 7.40625 14.8154L6.96973 14.8018C6.83007 15.4856 6.22507 16 5.5 16H3.5C2.67157 16 2 15.3284 2 14.5V5C2 4.17157 2.67157 3.5 3.5 3.5H5.5ZM7 13.0508L7.9082 13.0801C8.18606 13.0891 8.44263 13.2292 8.59961 13.458C9.22454 14.3639 9.78373 15.3199 10.2627 16.3018C10.8537 17.5117 11.3349 18.7829 11.6689 20.0039C11.7239 20.1509 11.8684 20.25 12.0264 20.25H12.3408C12.8297 20.25 13.2264 19.8521 13.2266 19.3643V16.0791C13.2266 15.8341 13.3278 15.6015 13.5068 15.4365C13.6848 15.2706 13.926 15.1861 14.1689 15.207C15.0768 15.276 15.9918 15.3124 16.8896 15.3145C17.6316 15.3135 18.3049 15.2958 18.9678 15.2588C19.6718 15.2208 20.234 14.6395 20.248 13.9365C20.27 12.8788 20.1308 11.8301 19.8359 10.8193C19.444 9.47848 18.7932 8.24423 17.9004 7.15332C17.6664 6.86837 17.3441 6.68843 16.9922 6.65039C15.2413 6.45641 13.4593 6.321 11.7305 6.25H7V13.0508Z" fill="black"/>
</svg>

<!-- This Source Code Form is subject to the terms of the Mozilla Public
   - License, v. 2.0. If a copy of the MPL was not distributed with this
   - file, You can obtain one at http://mozilla.org/MPL/2.0/. -->
<svg xmlns="http://www.w3.org/2000/svg" width="24" height="24" fill="none" viewBox="0 0 24 24">
    <path fill="#000" fill-rule="evenodd" d="M5.5 3.5a1.5 1.5 0 0 1 1.413 1h4.855a78 78 0 0 1 5.42.41c.807.09 1.542.491 2.069 1.134A12.1 12.1 0 0 1 22 13.972a3.12 3.12 0 0 1-2.935 3.035 39 39 0 0 1-4.087.005v2.352A2.64 2.64 0 0 1 12.343 22h-.315c-.882 0-1.683-.554-2.02-1.453a20.2 20.2 0 0 0-2.6-5.732l-.437-.013A1.5 1.5 0 0 1 5.5 16h-2A1.5 1.5 0 0 1 2 14.5V5a1.5 1.5 0 0 1 1.5-1.5zM7 13.05l.908.03c.278.01.535.15.692.378a22 22 0 0 1 1.663 2.844 21.5 21.5 0 0 1 1.406 3.702c.055.147.2.246.357.246h.315a.887.887 0 0 0 .886-.886V16.08a.87.87 0 0 1 .942-.872c.908.069 1.823.105 2.72.107a38 38 0 0 0 2.079-.055 1.36 1.36 0 0 0 1.28-1.322A10.35 10.35 0 0 0 17.9 7.153a1.37 1.37 0 0 0-.908-.503 77 77 0 0 0-5.262-.4H7z" clip-rule="evenodd" />
</svg>
